X: 13488
T: Flowers For Mom
R: jig
M: 6/8
K: Gmajor
|:GBd g2D|B3 BGE|DGB e2 d|c3-c2g|
fgf e2 g|fgf e2g|d^cd ed=c|BGE DEF|
GBd g2D|B3 BGE|DGB e2 d|c3-c2g|
[1 fgf e2g|fgf e2g|efg agf|gdB ecA:|
[2 fgf efg|fgf efg|efg agf|.g2ze3||
|:d^cd e2G|B3Bc^c|d^cd e2B|c3-c2B|
A^GA f3|ed^c =c2e|d^cd ed=c|B3Bc^c|
d^cd e2G|B3Bc^c|d^cd edB|
[1 c3-c2g|fgf efg|fgf efg|efg agf|g2ze3:|
[2 c3-c2B|A^AB c^cd|e^ef g^ga|bge fga|.g2zF3||

